lib/logo_tmp/nrk-logo-nrk-jazz-title-below-on-light.svg

<svg width="40" height="36" viewBox="0 0 40 36" fill="none" xmlns="http://www.w3.org/2000/svg">
<path d="M0 15.0034V1.00465H4.59339V15.0034H0ZM10.8428 3.23262L13.4844 15.0034H8.45737L5.30307 1.00465H8.12254C8.76907 0.996258 9.39641 1.22417 9.88691 1.6455C10.3782 2.04916 10.7158 2.60952 10.8428 3.23262ZM14.1744 15.0034V1.00465H18.7678V15.0034H14.1744ZM22.2372 6.32816C21.7422 6.33299 21.2552 6.20348 20.828 5.9535C20.4064 5.70985 20.0563 5.35966 19.8127 4.93808C19.5624 4.51076 19.4329 4.0236 19.4378 3.52841C19.4321 3.03625 19.5618 2.55199 19.8127 2.12854C20.0589 1.71153 20.4086 1.36515 20.828 1.12298C21.2553 0.873297 21.7423 0.743811 22.2372 0.748325C22.7292 0.743026 23.2133 0.872628 23.6369 1.12298C24.0521 1.36728 24.3981 1.71337 24.6424 2.12854C24.893 2.55211 25.0226 3.03629 25.0172 3.52841C25.0218 4.02356 24.8923 4.51064 24.6424 4.93808C24.4007 5.35781 24.0542 5.7077 23.6369 5.9535C23.2133 6.20435 22.7289 6.33398 22.2366 6.32816H22.2372ZM25.7269 15.0034V1.00465H30.3207V15.0034H25.7269ZM36.136 8.65465C36.1489 8.66823 36.2475 8.82924 36.4317 9.13769C36.6159 9.44615 36.8558 9.84051 37.1513 10.3207C37.447 10.8007 37.759 11.31 38.0874 11.8487C38.4157 12.3874 38.7247 12.8968 39.0143 13.3768C39.3028 13.8568 39.6313 14.399 40 15.0034H34.9531C34.6375 14.4907 34.3515 14.0274 34.0952 13.6134C33.8389 13.1993 33.5665 12.7524 33.2778 12.2726C32.9884 11.7933 32.7024 11.3267 32.4196 10.8728C32.1368 10.4188 31.8938 10.0213 31.6905 9.67994C31.4863 9.33841 31.3449 9.10835 31.2663 8.98984C31.0713 8.69573 30.9559 8.35605 30.9315 8.00401C30.951 7.66613 31.0597 7.33952 31.2466 7.05734C31.3254 6.9259 31.47 6.69254 31.6803 6.35736C31.8906 6.02218 32.137 5.62461 32.4196 5.16455C32.7021 4.7045 32.9882 4.23458 33.2778 3.75481C33.5674 3.27505 33.8398 2.82482 34.0952 2.4042C34.3519 1.98402 34.6379 1.51739 34.9531 1.00433H40L36.0962 7.37279C35.9754 7.56187 35.9073 7.77978 35.8991 8.00401C35.9121 8.23942 35.9942 8.46575 36.1353 8.65465H36.136Z" fill="#0A2343"/>
<path d="M3.80766 31.8169C3.81132 32.0456 3.7714 32.273 3.68994 32.4866C3.6162 32.6763 3.50236 32.8476 3.35627 32.9888C3.20455 33.1313 3.02367 33.2388 2.82629 33.304C2.59837 33.3791 2.35962 33.4157 2.11974 33.4123C1.96272 33.4123 1.81549 33.4057 1.6781 33.3926C1.5407 33.3795 1.40331 33.3631 1.26592 33.3434C1.12853 33.3237 0.991213 33.3006 0.853822 33.2741C0.716431 33.2476 0.575756 33.2182 0.431823 33.1858C0.287889 33.153 0.143933 33.1169 0 33.0775L0.157012 34.8501C0.3402 34.9026 0.516884 34.9518 0.686987 34.9975C0.85709 35.0438 1.02713 35.0828 1.19724 35.116C1.37239 35.1492 1.54938 35.1722 1.72721 35.1846C1.9104 35.1978 2.11317 35.2044 2.33561 35.2046C2.78937 35.2118 3.24193 35.1553 3.68012 35.0369C4.03755 34.9395 4.37372 34.7759 4.6713 34.5547C4.93965 34.3516 5.1691 34.1013 5.34847 33.8161C5.52676 33.5299 5.6592 33.2174 5.741 32.89C5.82727 32.5455 5.8701 32.1915 5.86854 31.8363V21.0034H3.80766V31.8169Z" fill="#2B0B4F"/>
<path d="M17.4879 33.7472C17.3444 33.7603 17.1999 33.7385 17.0667 33.6837C16.9334 33.6288 16.8153 33.5425 16.7224 33.432C16.5404 33.1164 16.4647 32.7503 16.5065 32.3881L16.5458 28.3307C16.5501 27.9054 16.4973 27.4814 16.3888 27.0702C16.2934 26.7095 16.1338 26.3691 15.9177 26.0653C15.6992 25.7686 15.4219 25.5205 15.1031 25.3366C14.7327 25.1257 14.3323 24.973 13.9157 24.8839C13.4063 24.7735 12.8863 24.7206 12.3652 24.7263C11.9518 24.726 11.5387 24.7522 11.1286 24.8048C10.7412 24.854 10.3576 24.9297 9.98044 25.0316C9.63069 25.1267 9.28668 25.2418 8.95004 25.3763L8.71444 27.0505C9.04156 26.9325 9.35236 26.834 9.64677 26.755C9.94118 26.676 10.2258 26.6104 10.5006 26.5581C10.7698 26.5065 11.0418 26.4705 11.3151 26.4501C11.5829 26.4304 11.8479 26.4204 12.11 26.4202C12.5102 26.4117 12.9097 26.4581 13.2974 26.5581C13.5804 26.6291 13.8405 26.7716 14.0531 26.972C14.2425 27.1667 14.3778 27.4078 14.4456 27.6712C14.5293 27.9959 14.569 28.3305 14.5634 28.6659L14.5611 29.1599L12.267 29.3159C11.4824 29.3379 10.7093 29.5116 9.99027 29.8276C9.45231 30.064 8.98781 30.4417 8.64576 30.9208C8.35557 31.3472 8.20159 31.8521 8.2042 32.3684C8.20057 32.853 8.31864 33.3307 8.54761 33.7573C8.78782 34.1953 9.14912 34.5543 9.58791 34.791C10.1233 35.0706 10.7217 35.2063 11.3249 35.185C11.89 35.198 12.4526 35.1045 12.9834 34.9096C13.4423 34.7293 13.8622 34.4618 14.2199 34.1217C14.3558 33.9911 14.4846 33.8534 14.6059 33.7091C14.644 33.9131 14.7159 34.1093 14.8186 34.2895C14.9936 34.5909 15.2625 34.8262 15.584 34.9591C15.9394 35.1024 16.3199 35.1728 16.7028 35.1659C16.8206 35.1659 16.9351 35.1623 17.0463 35.1561C17.1555 35.1495 17.2639 35.1329 17.3701 35.1065C17.4748 35.0803 17.5693 35.0576 17.6547 35.0376C17.7316 35.0205 17.8071 34.9974 17.8804 34.9686L18.0963 33.6493C17.988 33.6865 17.8762 33.7129 17.7627 33.7281C17.6716 33.7401 17.5798 33.7464 17.4879 33.7472ZM14.2199 32.8608C14.0071 33.0297 13.7768 33.1751 13.5329 33.2945C13.29 33.4129 13.0327 33.499 12.7675 33.5505C12.4926 33.6035 12.2133 33.6298 11.9333 33.629C11.6135 33.6383 11.2953 33.5778 11.001 33.4517C10.7615 33.3476 10.5596 33.1724 10.4221 32.9498C10.2861 32.7137 10.2181 32.4443 10.2258 32.1718C10.2068 31.8433 10.2965 31.5178 10.4809 31.2458C10.6947 30.9956 10.9843 30.8226 11.3053 30.7534C11.8067 30.635 12.3213 30.5822 12.8362 30.5961H14.5549L14.5461 32.5509C14.4464 32.6633 14.3372 32.7671 14.2199 32.8608Z" fill="#2B0B4F"/>
<path d="M27.3797 26.3414L27.1442 24.9426H19.5681L19.3325 26.5183H25.0323L19.1562 33.6483L19.3917 34.9876H27.3997L27.6155 33.3922H21.6165L27.3797 26.3414Z" fill="#2B0B4F"/>
<path d="M31.5083 33.3926L37.2722 26.3418L37.0363 24.943H29.4602L29.2246 26.5187H34.9241L29.0481 33.6487L29.2836 34.988H37.2915L37.5074 33.3926H31.5083Z" fill="#2B0B4F"/>
</svg>

<svg xmlns="http://www.w3.org/2000/svg" viewBox="0 0 40 36"><path fill="#0A2343" d="M0 15.003V1.005h4.593v13.998H0Zm10.843-11.77 2.641 11.77H8.457L5.303 1.005h2.82a2.655 2.655 0 0 1 1.764.64c.491.404.829.965.956 1.588Zm3.331 11.77V1.005h4.594v13.998h-4.594Zm8.063-8.675a2.737 2.737 0 0 1-1.409-.375 2.778 2.778 0 0 1-1.015-1.015 2.735 2.735 0 0 1-.375-1.41 2.685 2.685 0 0 1 .375-1.4 2.812 2.812 0 0 1 3.824-1.005c.415.244.761.59 1.005 1.006.251.423.38.907.375 1.4.005.495-.125.982-.375 1.41a2.8 2.8 0 0 1-1.005 1.014c-.424.251-.908.381-1.4.375Zm3.49 8.675V1.005h4.594v13.998h-4.594Zm10.409-6.348c.013.013.111.174.296.483.184.308.424.703.72 1.183a384.573 384.573 0 0 1 1.862 3.056c.289.48.617 1.022.986 1.626h-5.047l-.858-1.39c-.256-.414-.529-.86-.817-1.34-.29-.48-.576-.946-.858-1.4a71.293 71.293 0 0 1-.73-1.193 21.096 21.096 0 0 0-.424-.69 2.04 2.04 0 0 1-.334-.986c.019-.338.128-.664.315-.947.078-.131.223-.364.433-.7a216.7 216.7 0 0 0 1.598-2.603l.817-1.35.858-1.4H40l-3.904 6.369c-.12.189-.189.407-.197.631.013.235.095.462.236.65h.001Z"/><path fill="#2B0B4F" d="M3.808 31.817c.003.229-.037.456-.118.67-.074.19-.188.36-.334.502-.151.142-.332.25-.53.315a2.16 2.16 0 0 1-.706.108c-.157 0-.305-.006-.442-.02a8.764 8.764 0 0 1-.824-.118A10.32 10.32 0 0 1 0 33.077l.157 1.773c.183.053.36.102.53.148.17.046.34.085.51.118.175.033.352.056.53.069.183.013.386.02.609.02.453.007.906-.05 1.344-.168.358-.097.694-.261.991-.482.269-.203.498-.454.677-.739.179-.286.311-.599.393-.926a4.26 4.26 0 0 0 .128-1.054V21.003H3.808v10.814ZM17.488 33.747a.894.894 0 0 1-.766-.315 1.7 1.7 0 0 1-.216-1.044l.04-4.057a4.753 4.753 0 0 0-.157-1.26 3.102 3.102 0 0 0-.471-1.006 2.666 2.666 0 0 0-.815-.728c-.37-.211-.77-.364-1.187-.453a6.96 6.96 0 0 0-1.55-.158c-.414 0-.827.026-1.237.079-.388.049-.771.125-1.149.227-.35.095-.693.21-1.03.344l-.236 1.674a11.674 11.674 0 0 1 1.787-.492c.269-.052.54-.087.814-.108.268-.02.533-.03.795-.03.4-.008.8.038 1.187.138.283.071.543.214.756.414.19.195.325.436.393.7.083.324.123.659.117.994l-.002.494-2.294.156a6.082 6.082 0 0 0-2.277.512 3.268 3.268 0 0 0-1.344 1.093 2.55 2.55 0 0 0-.442 1.447c-.003.485.115.963.344 1.39.24.437.601.796 1.04 1.033.535.28 1.134.415 1.737.394a4.51 4.51 0 0 0 1.658-.275c.46-.18.88-.448 1.237-.788.136-.13.265-.269.386-.413.038.204.11.4.213.58.175.302.443.537.765.67.355.143.736.214 1.119.207.118 0 .232-.004.343-.01a1.79 1.79 0 0 0 .324-.05l.285-.068a1.52 1.52 0 0 0 .225-.07l.216-1.319c-.108.038-.22.064-.333.08a2.255 2.255 0 0 1-.275.018Zm-3.268-.886a3.775 3.775 0 0 1-.687.434c-.243.118-.5.204-.765.255a4.34 4.34 0 0 1-.835.079c-.32.01-.638-.051-.932-.177a1.28 1.28 0 0 1-.579-.502 1.476 1.476 0 0 1-.196-.778c-.02-.329.07-.654.255-.926a1.5 1.5 0 0 1 .824-.493 5.961 5.961 0 0 1 1.531-.157h1.719l-.009 1.955c-.1.112-.209.216-.326.31ZM27.38 26.341l-.236-1.398h-7.576l-.236 1.575h5.7l-5.876 7.13.236 1.34H27.4l.216-1.596h-6l5.764-7.05ZM31.508 33.393l5.764-7.051-.236-1.399H29.46l-.235 1.576h5.7l-5.877 7.13.236 1.339h8.008l.215-1.595h-5.999Z"/></svg>
